kora-light-panel/panel/16/krb-expiring-ticket.svg

<svg xmlns="http://www.w3.org/2000/svg" width="16" height="16" version="1.1">
 <defs>
  <style id="current-color-scheme" type="text/css">
   .ColorScheme-Text { color:#444444; } .ColorScheme-Highlight { color:#4285f4; }
  </style>
 </defs>
 <path style="fill:currentColor" class="ColorScheme-Highlight" d="M 4.5,4 C 2.0147,4 0,6.0147 0,8.5 0,10.985 2.0147,13 4.5,13 6.4047,12.997 8.101,11.796 8.736,10 L 12,9.996 V 11.996 H 15 V 9.992 L 16,9.996 V 6.9961 L 8.736,7 C 8.101,5.2044 6.405,4.0029 4.5003,4.0002 Z M 4.5,7 C 5.3284,7 6,7.672 6,8.5 6,9.328 5.3284,10 4.5,10 3.6716,10 3,9.328 3,8.5 3,7.672 3.6716,7 4.5,7 Z"/>
</svg>

<svg xmlns="http://www.w3.org/2000/svg" width="16" height="16" viewBox="0 0 16 16">
 <defs>
  <style id="current-color-scheme" type="text/css">
   .ColorScheme-Text { color:#444444; } .ColorScheme-Highlight { color:#4285f4; } .ColorScheme-NeutralText { color:#ff9800; } .ColorScheme-PositiveText { color:#4caf50; } .ColorScheme-NegativeText { color:#f44336; }
  </style>
 </defs>
 <path style="fill:currentColor" class="ColorScheme-NegativeText" d="m4.5 4c-2.48 0-4.5 2.01-4.5 4.5s2.02 4.5 4.5 4.5c1.91 0 3.6-1.2 4.24-3h3.26v2h3v-2h1v-3h-7.26c-.64-1.8-2.33-3-4.24-3zm0 1c1.937 0 3.5 1.563 3.5 3.5s-1.563 3.5-3.5 3.5-3.5-1.563-3.5-3.5 1.563-3.5 3.5-3.5z" />
</svg>
